X: 20035
T: Jimmy Duffy's
R: barndance
M: 4/4
K: Gmajor
|:B>GD>G B2 B2|B>AG>B d2 d2|e>fg>d B2 c>B|A>GF>G A4|
B>GD>G B2 B2|(3BcB G>B d4|e>fg>d B2 c>B|A>G F2 G4:|
|:g>fg>d B2 B2|B>AG>B d2 d2|e>fg>d B2 c>B|A>GF>G A4|
[1 g/e/g/f/ g>d B2 B2|B>AG>B d4|e>fg>d B2 c>B|A>G F2 G4:|
[2 B>GD>G B2 B2|(3BcB G>B d4|e>fg>d B2 c>B|A>G F2 G4||

